X:396
T:Miss Ratray
R:Reel
O:Scotland
B:Jerry Holland's collection
B:Skye collection
B:Athole collection
S:Richard Darsie's web page
Z:Transcription, chords:Mike Long
M:C|
L:1/8
K:D
"D"d2AG FDFA|"G"Beed "A"cABc|"D"d2AG FDDg|"G"fd"A"ec "D"dABc|\
"D"d2AG FDFA|"G"Beed "A"cABc|
"D"dcdA "G"BGAG|"A"FDEF "D"D2FA|]\
"D"defg afdA|"Em"GBed "A"cAAe|"D"fgaf dAFA|
"G"GB"A"ec "D"dcde|\
"D"fgaf dAFA|"Em"GBed "A"cAAe|"D"fdge "G"afbg|"A"fdec "D"dABc|]
